app/dist/common/images/hla-corpltd.svg

<svg height="18" viewBox="0 0 18 18" width="18" xmlns="http://www.w3.org/2000/svg"><path d="m0 0h18v18h-18z" fill="#f0f3fa"/><path d="m8.25 4h1.5a52.28 52.28 0 0 1 4.02.25c.13 1.33.2 2.66.23 4v1.51a53.1 53.1 0 0 1 -.25 4.01c-1.32.13-2.65.2-3.98.23h-1.53a52.34 52.34 0 0 1 -4.01-.25c-.13-1.33-.2-2.66-.23-4v-1.5a55.89 55.89 0 0 1 .25-4.02c1.33-.12 2.66-.2 4-.22z" fill="#021764"/><path d="m6 8.68v1.31h-.62v-2.99h.62v1.31l.01.01h.01l.98.01v-1.31-.02h.62v3h-.62v-1.33h-1zm3.01 1.02h.92v.3h-1.55v-3h.62l.01.01v2.69l.01.01z" fill="#f0f3fa"/><path d="m11.02 9.4h.64a.01.01 0 0 1 .02.01l.11.58.02.01h.62v-.01l-.64-2.99h-.02-.85v.01l-.67 2.97a.01.01 0 0 0 0 .02h.63v-.01l.12-.59h.01zm.61-.3.01-.01-.26-1.52c0-.04-.01-.04-.02 0l-.25 1.5c0 .02 0 .03.02.03z" fill="#f0f3fa" fill-rule="evenodd"/><path d="m6 11h6v1h-6z" fill="#fed900"/></svg>

<!-- by TradingView --><svg width="18" height="18" viewBox="0 0 18 18" xmlns="http://www.w3.org/2000/svg"><path fill="#F0F3FA" d="M0 0h18v18H0z"/><path d="M8.25 4h1.5a52.28 52.28 0 0 1 4.02.25c.13 1.33.2 2.66.23 4v1.51a53.1 53.1 0 0 1-.25 4.01c-1.32.13-2.65.2-3.98.23H8.24a52.34 52.34 0 0 1-4.01-.25c-.13-1.33-.2-2.66-.23-4V8.25a55.89 55.89 0 0 1 .25-4.02c1.33-.12 2.66-.2 4-.22Z" fill="#021764"/><path d="M6 8.68v1.31h-.62V7H6v1.31l.01.01h.01l.98.01V7.02L7 7h.62V10H7V8.67H6ZM9.01 9.7h.92V10H8.38V7H9l.01.01V9.7l.01.01Z" fill="#F0F3FA"/><path fill-rule="evenodd" d="M11.02 9.4h.64a.01.01 0 0 1 .02.01l.11.58.02.01h.62v-.01L11.79 7 11.77 7h-.85v.01l-.67 2.97a.01.01 0 0 0 0 .02h.63v-.01L11 9.4h.01V9.4Zm.61-.3.01-.01-.26-1.52c0-.04-.01-.04-.02 0l-.25 1.5c0 .02 0 .03.02.03h.5Z" fill="#F0F3FA"/><path fill="#FED900" d="M6 11h6v1H6z"/></svg>
